tools/panel_16/indicator-sensors-memory.svg

<svg xmlns="http://www.w3.org/2000/svg" width="16" height="16" version="1.1">
 <defs>
  <style id="current-color-scheme" type="text/css">
   .ColorScheme-Text { color:#d3dae3; } .ColorScheme-Highlight { color:#5294e2; }
  </style>
 </defs>
 <g>
  <path style="fill:currentColor" class="ColorScheme-Text" d="M 3,0 C 2.446,0 2,0.446 2,1 V 2 3 4 5 6 H 4 V 4 3 2 0 Z M 5,0 V 1 9 10 14 15 16 H 7 8 A 1,1 0 0 1 9,15 1,1 0 0 1 9.998,15.93 1.5,1.5 0 0 1 10,16 H 11 11.5 12 C 12.554,16 13,15.554 13,15 V 14.5 14 1.9997 1.4997 0.9997 C 13,0.4457 12.554,-3e-4 12,-3e-4 H 11.5 11 10 A 1,1 0 0 1 9.994,0.0997 1,1 0 0 1 9,1 1,1 0 0 1 8,0 H 7 6.0001 5.0001 Z M 7,3 H 11 V 5 H 7 Z M 7,7 H 11 V 9 H 7 Z M 2,8 V 9 10 11 12 13 14 15 C 2,15.554 2.446,16 3,16 H 4 V 14 13 12 11 9 8 Z M 7,11 H 11 V 13 H 7 Z"/>
 </g>
</svg>

<?xml version="1.0" encoding="UTF-8" standalone="no"?>
<svg
   xmlns:dc="http://purl.org/dc/elements/1.1/"
   xmlns:cc="http://creativecommons.org/ns#"
   xmlns:rdf="http://www.w3.org/1999/02/22-rdf-syntax-ns#"
   xmlns:svg="http://www.w3.org/2000/svg"
   xmlns="http://www.w3.org/2000/svg"
   xmlns:sodipodi="http://sodipodi.sourceforge.net/DTD/sodipodi-0.dtd"
   xmlns:inkscape="http://www.inkscape.org/namespaces/inkscape"
   width="16"
   height="16"
   version="1.1"
   id="svg2"
   inkscape:version="0.91 r13725"
   sodipodi:docname="indicator-sensors-memory.svg">
  <metadata
     id="metadata13">
    <rdf:RDF>
      <cc:Work
         rdf:about="">
        <dc:format>image/svg+xml</dc:format>
        <dc:type
           rdf:resource="http://purl.org/dc/dcmitype/StillImage" />
      </cc:Work>
    </rdf:RDF>
  </metadata>
  <sodipodi:namedview
     pagecolor="#ffffff"
     bordercolor="#666666"
     borderopacity="1"
     objecttolerance="10"
     gridtolerance="10"
     guidetolerance="10"
     inkscape:pageopacity="0"
     inkscape:pageshadow="2"
     inkscape:window-width="1920"
     inkscape:window-height="1016"
     id="namedview11"
     showgrid="false"
     inkscape:zoom="14.75"
     inkscape:cx="8"
     inkscape:cy="8"
     inkscape:window-x="0"
     inkscape:window-y="34"
     inkscape:window-maximized="1"
     inkscape:current-layer="svg2" />
  <defs
     id="defs4">
    <style
       id="current-color-scheme"
       type="text/css">
   .ColorScheme-Text { color:#d3dae3; } .ColorScheme-Highlight { color:#5294e2; }
  </style>
  </defs>
  <g
     id="g7"
     transform="matrix(0,-1,1,0,1.5e-4,16)">
    <path
       style="color:#d3dae3;fill:currentColor"
       class="ColorScheme-Text"
       d="M 3,0 C 2.446,0 2,0.446 2,1 L 2,2 2,3 2,4 2,5 2,6 4,6 4,4 4,3 4,2 4,0 Z m 2,0 0,1 0,8 0,1 0,4 0,1 0,1 2,0 1,0 A 1,1 0 0 1 9,15 1,1 0 0 1 9.998,15.93 1.5,1.5 0 0 1 10,16 l 1,0 0.5,0 0.5,0 c 0.554,0 1,-0.446 1,-1 l 0,-0.5 0,-0.5 0,-12.0003 0,-0.5 0,-0.5 c 0,-0.554 -0.446,-1 -1,-1 l -0.5,0 -0.5,0 -1,0 A 1,1 0 0 1 9.994,0.0997 1,1 0 0 1 9,1 1,1 0 0 1 8,0 l -1,0 -0.9999,0 -1,0 z m 2,3 4,0 0,2 -4,0 z m 0,4 4,0 0,2 -4,0 z m -5,1 0,1 0,1 0,1 0,1 0,1 0,1 0,1 c 0,0.554 0.446,1 1,1 L 4,16 4,14 4,13 4,12 4,11 4,9 4,8 Z m 5,3 4,0 0,2 -4,0 z"
       id="path9"
       inkscape:connector-curvature="0" />
  </g>
</svg>
